images/MIG-21.svg

<?xml version="1.0" encoding="UTF-8" standalone="no"?>
<svg
   version="1.1"
   width="627.09998"
   height="1000"
   style="clip-rule:evenodd;fill-rule:evenodd;image-rendering:optimizeQuality;shape-rendering:geometricPrecision;text-rendering:geometricPrecision"
   id="svg974"
   sodipodi:docname="MIG-21.svg"
   inkscape:version="1.4 (e7c3feb1, 2024-10-09)"
   xmlns:inkscape="http://www.inkscape.org/namespaces/inkscape"
   xmlns:sodipodi="http://sodipodi.sourceforge.net/DTD/sodipodi-0.dtd"
   xmlns="http://www.w3.org/2000/svg"
   xmlns:svg="http://www.w3.org/2000/svg">
  <sodipodi:namedview
     id="namedview974"
     pagecolor="#ffffff"
     bordercolor="#000000"
     borderopacity="0.25"
     inkscape:showpageshadow="2"
     inkscape:pageopacity="0.0"
     inkscape:pagecheckerboard="0"
     inkscape:deskcolor="#d1d1d1"
     inkscape:zoom="7.3053445"
     inkscape:cx="330.23768"
     inkscape:cy="78.641056"
     inkscape:window-width="1840"
     inkscape:window-height="1192"
     inkscape:window-x="153"
     inkscape:window-y="93"
     inkscape:window-maximized="0"
     inkscape:current-layer="svg974" />
  <defs
     id="defs974" />
  <path
     style="fill:none;stroke:#00e58b;stroke-width:2.9;stroke-linecap:round;stroke-linejoin:round;stroke-dashoffset:17.9906;paint-order:markers stroke fill;fill-opacity:1"
     d="m 320.579,987.483 1.161,-6.388 0.194,-7.937 1.936,-5.614 -0.968,-13.164 0.193,-8.518 -0.387,-4.453 -0.581,-2.71 v -41.427 0 l 23.811,0.581 v 0.968 l 3.872,1.935 1.742,6.969 82.468,59.044 3.098,0.387 3.097,-1.935 0.774,-3.485 0.581,-82.855 -2.129,-4.839 -2.711,4.839 -0.774,23.037 -79.564,-130.477 -0.387,-70.853 h 2.129 l 2.517,-1.161 190.682,-0.387 1.743,11.228 0.774,-11.809 1.162,-5.808 -0.775,-27.295 -102.794,-158.354 -3.097,-21.681 -2.711,12.583 -0.387,-0.775 -0.581,0.194 -85.565,-133.187 -3.484,-61.754 -1.743,-64.465 -0.967,-48.009 -1.356,-24.585 -2.516,-40.46 -1.162,-11.228 -2.323,-8.711 -3.484,-0.775 -5.614,-0.58 L 319.998,43.1697 317,10.6472 l -2.86042,32.5225 -16.455,60.3993 -5.614,0.58 -3.484,0.775 -2.323,8.711 -1.162,11.228 -2.516,40.46 -1.356,24.585 -0.967,48.009 -1.743,64.465 -3.484,61.754 -85.565,133.187 -0.581,-0.194 -0.387,0.775 -2.711,-12.583 -3.097,21.681 -102.794,158.354 -0.775,27.295 1.162,5.808 0.774,11.809 1.743,-11.228 190.682,0.387 2.517,1.161 h 2.129 l -0.387,70.853 -79.564,130.477 -0.774,-23.037 -2.711,-4.839 -2.129,4.839 0.581,82.855 0.774,3.485 3.097,1.935 3.098,-0.387 82.468,-59.044 1.742,-6.969 3.872,-1.935 v -0.968 l 23.811,-0.581 v 0 41.427 l -0.581,2.71 -0.387,4.453 0.193,8.518 -0.968,13.164 1.936,5.614 0.194,7.937 1.161,6.388 3.44142,6.776 z"
     id="path1"
     sodipodi:nodetypes="ccccccccccccccccccccccccccccccccccccccccccccccccccccccccccccccccccccccccccccccccccccccccccccccccc" />
</svg>

<?xml version="1.0" encoding="UTF-8" standalone="no"?>
<svg
   version="1.1"
   width="627.09998"
   height="1000"
   style="clip-rule:evenodd;fill-rule:evenodd;image-rendering:optimizeQuality;shape-rendering:geometricPrecision;text-rendering:geometricPrecision"
   id="svg974"
   sodipodi:docname="MIG-21.svg"
   inkscape:version="1.4 (e7c3feb1, 2024-10-09)"
   xmlns:inkscape="http://www.inkscape.org/namespaces/inkscape"
   xmlns:sodipodi="http://sodipodi.sourceforge.net/DTD/sodipodi-0.dtd"
   xmlns="http://www.w3.org/2000/svg"
   xmlns:svg="http://www.w3.org/2000/svg">
  <sodipodi:namedview
     id="namedview974"
     pagecolor="#ffffff"
     bordercolor="#000000"
     borderopacity="0.25"
     inkscape:showpageshadow="2"
     inkscape:pageopacity="0.0"
     inkscape:pagecheckerboard="0"
     inkscape:deskcolor="#d1d1d1"
     inkscape:zoom="1.2098968"
     inkscape:cx="325.64761"
     inkscape:cy="435.57434"
     inkscape:window-width="1480"
     inkscape:window-height="1165"
     inkscape:window-x="260"
     inkscape:window-y="153"
     inkscape:window-maximized="0"
     inkscape:current-layer="svg974" />
  <defs
     id="defs974" />
  <path
     style="fill:none;stroke:#00e58b;stroke-width:2.9;stroke-linecap:round;stroke-linejoin:round;stroke-dashoffset:17.9906;paint-order:markers stroke fill;fill-opacity:1"
     d="M 320.579 987.483 L 321.74 981.095 L 321.934 973.158 L 323.87 967.544 L 322.902 954.38 L 323.095 945.862 L 322.708 941.409 L 322.127 938.699 L 322.127 897.272 L 322.127 897.272 L 345.938 897.853 L 345.938 898.821 L 349.81 900.756 L 351.552 907.725 L 434.02 966.769 L 437.118 967.156 L 440.215 965.221 L 440.989 961.736 L 441.57 878.881 L 439.441 874.042 L 436.73 878.881 L 435.956 901.918 L 356.392 771.441 L 356.005 700.588 L 358.134 700.588 L 360.651 699.427 L 551.333 699.04 L 553.076 710.268 L 553.85 698.459 L 555.012 692.651 L 554.237 665.356 L 451.443 507.002 L 448.346 485.321 L 445.635 497.904 L 445.248 497.129 L 444.667 497.323 L 359.102 364.136 L 355.618 302.382 L 353.875 237.917 L 352.908 189.908 L 351.552 165.323 L 349.036 124.863 L 347.874 113.635 L 345.551 104.924 L 342.067 104.149 L 336.453 103.569 L 319.998 43.1697 L 317 10.6472 L 314.14 43.1697 L 297.685 103.569 L 292.071 104.149 L 288.587 104.924 L 286.264 113.635 L 285.102 124.863 L 282.586 165.323 L 281.23 189.908 L 280.263 237.917 L 278.52 302.382 L 275.036 364.136 L 189.471 497.323 L 188.89 497.129 L 188.503 497.904 L 185.792 485.321 L 182.695 507.002 L 79.9006 665.356 L 79.1256 692.651 L 80.2876 698.459 L 81.0616 710.268 L 82.8046 699.04 L 273.487 699.427 L 276.004 700.588 L 278.133 700.588 L 277.746 771.441 L 198.182 901.918 L 197.408 878.881 L 194.697 874.042 L 192.568 878.881 L 193.149 961.736 L 193.923 965.221 L 197.02 967.156 L 200.118 966.769 L 282.586 907.725 L 284.328 900.756 L 288.2 898.821 L 288.2 897.853 L 312.011 897.272 L 312.011 897.272 L 312.011 938.699 L 311.43 941.409 L 311.043 945.862 L 311.236 954.38 L 310.268 967.544 L 312.204 973.158 L 312.398 981.095 L 313.559 987.483 L 317 994.259 L 320.579 987.483"
     id="path1"
     sodipodi:nodetypes="ccccccccccccccccccccccccccccccccccccccccccccccccccccccccccccccccccccccccccccccccccccccccccccccccc" />
</svg>
